public/icons/eye.svg

<svg width="20" height="20" viewBox="0 0 20 20" fill="none" xmlns="http://www.w3.org/2000/svg">
<path d="M17.2559 2.74408C17.5813 3.06951 17.5813 3.59715 17.2559 3.92259L3.92255 17.2559C3.59711 17.5814 3.06947 17.5814 2.74404 17.2559C2.4186 16.9305 2.4186 16.4028 2.74404 16.0774L16.0774 2.74408C16.4028 2.41864 16.9304 2.41864 17.2559 2.74408Z" fill="#667185"/>
<path d="M13.1662 4.4767C12.2276 4.03469 11.1694 3.75 9.99994 3.75C7.54653 3.75 5.58226 5.00308 4.18629 6.33307C2.7871 7.66611 1.87921 9.14973 1.51982 9.7915C1.28431 10.2121 1.25626 10.7143 1.44958 11.1603C1.58459 11.4718 1.8142 11.9544 2.15261 12.5143C2.39065 12.9082 2.90294 13.0346 3.29684 12.7965C3.69073 12.5585 3.81708 12.0462 3.57903 11.6523C3.30684 11.2019 3.11797 10.8124 3.0034 10.5537C3.34153 9.95778 4.14233 8.67693 5.33593 7.53975C6.56883 6.36513 8.14165 5.41667 9.99994 5.41667C10.6683 5.41667 11.2998 5.53937 11.8918 5.75116L13.1662 4.4767Z" fill="#667185"/>
<path d="M14.7421 7.61491C15.8925 8.73288 16.6658 9.97087 16.9965 10.5537C16.8819 10.8124 16.693 11.2019 16.4209 11.6523C16.1828 12.0462 16.3092 12.5585 16.7031 12.7965C17.0969 13.0346 17.6092 12.9082 17.8473 12.5143C18.1857 11.9544 18.4153 11.4718 18.5503 11.1603C18.7436 10.7143 18.7156 10.2121 18.4801 9.7915C18.1299 9.16625 17.2592 7.74193 15.9207 6.43629L14.7421 7.61491Z" fill="#667185"/>
<path d="M9.99996 6.66667C10.3028 6.66667 10.5981 6.69898 10.8826 6.76034L9.16774 8.47519C8.4565 8.7262 7.89283 9.28987 7.64182 10.0011L5.92696 11.716C5.8656 11.4315 5.83329 11.1362 5.83329 10.8333C5.83329 8.53215 7.69877 6.66667 9.99996 6.66667Z" fill="#667185"/>
<path d="M9.99996 13.3333C9.70756 13.3333 9.42689 13.2831 9.16609 13.1909L7.91522 14.4418C8.5284 14.7968 9.24045 15 9.99996 15C12.3011 15 14.1666 13.1345 14.1666 10.8333C14.1666 10.0738 13.9634 9.36177 13.6084 8.74859L12.3575 9.99947C12.4498 10.2603 12.5 10.5409 12.5 10.8333C12.5 12.214 11.3807 13.3333 9.99996 13.3333Z" fill="#667185"/>
</svg>

<svg xmlns="http://www.w3.org/2000/svg" width="20" height="20" fill="none"><path fill="#667185" d="M17.256 2.744a.833.833 0 0 1 0 1.179L3.923 17.256a.833.833 0 1 1-1.179-1.179L16.077 2.744a.833.833 0 0 1 1.179 0M13.166 4.477A7.4 7.4 0 0 0 10 3.75c-2.453 0-4.418 1.253-5.814 2.583C2.787 7.666 1.88 9.15 1.52 9.791c-.236.421-.264.923-.07 1.37.135.31.364.793.703 1.353a.833.833 0 1 0 1.426-.862 10 10 0 0 1-.576-1.098c.339-.596 1.14-1.877 2.333-3.014C6.569 6.365 8.142 5.417 10 5.417c.668 0 1.3.122 1.892.334zM14.742 7.615c1.15 1.118 1.924 2.356 2.255 2.939a10 10 0 0 1-.576 1.098.833.833 0 1 0 1.426.862c.339-.56.568-1.042.703-1.354a1.54 1.54 0 0 0-.07-1.369c-.35-.625-1.22-2.05-2.56-3.355z"/><path fill="#667185" d="M10 6.667q.455 0 .883.093L9.168 8.475a2.5 2.5 0 0 0-1.526 1.526l-1.715 1.715A4.167 4.167 0 0 1 10 6.666M10 13.333c-.292 0-.573-.05-.834-.142l-1.25 1.25a4.167 4.167 0 0 0 5.693-5.693L12.357 10A2.5 2.5 0 0 1 10 13.333"/></svg>
